X:140 
T:Mount Collins Reel, The
F:file ID: cre.5/140mountc
B:CRE5.167 (Cnoc UÃÂÃÂÃÂÃÂ­ ChoileÃÂÃÂÃÂÃÂ¡in)
M:4/4
Q:180
R:reel
K:A
EF|A2 (3cBA ea (3cBA|ea~a2 faec|dcdf eAcA|BdcA BF~F2|
A2 (3cBA ea (3cBA|ea~a2 faec|defg abaf|edcB A2:|
fg|aece aece|~f2ce fece|aece aecA|BAFA Bcde|
a2 ~a2 aece|a2 ~a2 aecB|ABce abaf|edcB A2:|

%%%

